public/item-thumb.svg

<svg width="28" height="26" viewBox="0 0 28 26" fill="none" xmlns="http://www.w3.org/2000/svg">
<path fill-rule="evenodd" clip-rule="evenodd" d="M10.25 25.5H21.5C22.5375 25.5 23.425 24.875 23.8 23.975L27.575 15.1625C27.6875 14.875 27.75 14.575 27.75 14.25V11.75C27.75 10.375 26.625 9.25 25.25 9.25H17.3625L18.55 3.5375L18.5875 3.1375C18.5875 2.625 18.375 2.15 18.0375 1.8125L16.7125 0.5L8.475 8.7375C8.025 9.1875 7.75 9.8125 7.75 10.5V23C7.75 24.375 8.875 25.5 10.25 25.5ZM10.25 10.5L15.675 5.07498L14 11.75H25.25V14.25L21.5 23H10.25V10.5ZM5.25 10.5H0.25V25.5H5.25V10.5Z" fill="black"/>
</svg>

<svg width="28" height="26" fill="none" xmlns="http://www.w3.org/2000/svg"><path fill-rule="evenodd" clip-rule="evenodd" d="M10.25 25.5H21.5a2.483 2.483 0 002.3-1.525l3.775-8.813a2.47 2.47 0 00.175-.912v-2.5c0-1.375-1.125-2.5-2.5-2.5h-7.887l1.187-5.713.037-.4c0-.512-.212-.987-.55-1.325L16.713.5 8.475 8.738A2.484 2.484 0 007.75 10.5V23c0 1.375 1.125 2.5 2.5 2.5zm0-15l5.425-5.425L14 11.75h11.25v2.5L21.5 23H10.25V10.5zm-5 0h-5v15h5v-15z" fill="#000"/></svg>
